icons-rebrand/svg/add-video-marker-regular.svg

<svg width="32" height="32" viewBox="0 0 32 32" fill="none" xmlns="http://www.w3.org/2000/svg">
<path d="M23.615 2.25H8.38495C7.26698 2.27364 6.20397 2.73951 5.42888 3.54553C4.6538 4.35155 4.22985 5.43196 4.24995 6.55V20.545C4.24231 21.2676 4.41654 21.9806 4.75659 22.6182C5.09665 23.2559 5.59162 23.7977 6.19595 24.194L13.424 28.991C14.1934 29.4866 15.0894 29.7498 16.0047 29.7489C16.9199 29.748 17.8155 29.4831 18.584 28.986L25.795 24.199C26.4016 23.8033 26.8987 23.261 27.2404 22.6224C27.5821 21.9837 27.7574 21.2693 27.75 20.545V6.55C27.7701 5.43196 27.3461 4.35155 26.571 3.54553C25.7959 2.73951 24.7329 2.27364 23.615 2.25ZM26.25 20.546C26.2525 21.0201 26.1373 21.4875 25.9146 21.906C25.6918 22.3246 25.3686 22.6813 24.974 22.944L17.763 27.731C17.2387 28.069 16.6284 28.2492 16.0047 28.2501C15.381 28.251 14.7701 28.0725 14.245 27.736L7.01695 22.939C6.62438 22.6757 6.30318 22.3193 6.08208 21.9015C5.86097 21.4837 5.74686 21.0177 5.74995 20.545V6.55C5.72974 5.82973 5.99562 5.13077 6.48943 4.60604C6.98324 4.08131 7.66478 3.77351 8.38495 3.75H23.615C24.3351 3.77351 25.0167 4.08131 25.5105 4.60604C26.0043 5.13077 26.2702 5.82973 26.25 6.55V20.545V20.546Z" fill="#0F0F0F"/>
<path d="M20 14.25H16.75V11C16.75 10.8011 16.671 10.6103 16.5303 10.4697C16.3897 10.329 16.1989 10.25 16 10.25C15.8011 10.25 15.6103 10.329 15.4697 10.4697C15.329 10.6103 15.25 10.8011 15.25 11V14.25H12C11.8011 14.25 11.6103 14.329 11.4697 14.4697C11.329 14.6103 11.25 14.8011 11.25 15C11.25 15.1989 11.329 15.3897 11.4697 15.5303C11.6103 15.671 11.8011 15.75 12 15.75H15.25V19C15.25 19.1989 15.329 19.3897 15.4697 19.5303C15.6103 19.671 15.8011 19.75 16 19.75C16.1989 19.75 16.3897 19.671 16.5303 19.5303C16.671 19.3897 16.75 19.1989 16.75 19V15.75H20C20.1989 15.75 20.3897 15.671 20.5303 15.5303C20.671 15.3897 20.75 15.1989 20.75 15C20.75 14.8011 20.671 14.6103 20.5303 14.4697C20.3897 14.329 20.1989 14.25 20 14.25Z" fill="#0F0F0F"/>
</svg>

<svg width="32" height="32" viewBox="0 0 32 32" fill="none" xmlns="http://www.w3.org/2000/svg"><path d="M23.615 2.25H8.385a4.225 4.225 0 0 0-4.135 4.3v13.995a4.309 4.309 0 0 0 1.946 3.649l7.228 4.797a4.757 4.757 0 0 0 5.16-.005l7.211-4.787a4.31 4.31 0 0 0 1.955-3.654V6.55a4.225 4.225 0 0 0-4.135-4.3zm2.635 18.296a2.862 2.862 0 0 1-1.276 2.398l-7.211 4.787a3.253 3.253 0 0 1-3.518.005l-7.228-4.797a2.86 2.86 0 0 1-1.267-2.394V6.55a2.725 2.725 0 0 1 2.635-2.8h15.23a2.725 2.725 0 0 1 2.635 2.8v13.995z" fill="#0F0F0F"/><path d="M20 14.25h-3.25V11a.75.75 0 0 0-1.5 0v3.25H12a.75.75 0 0 0 0 1.5h3.25V19a.75.75 0 0 0 1.5 0v-3.25H20a.75.75 0 1 0 0-1.5z" fill="#0F0F0F"/></svg>
